X: 4816
T: Boys Of The Town, The
R: jig
M: 6/8
K: Gmajor
|:GFG GBd|edB dBA|GFG GBd|edB AFD|
GFG GBd|edB gfg|edB AGA|BGG G2:|
def gfg|afd edB|def gfg|afd e2 d|
[1 def gfg|afd efg|edB AGA|BGG G2:|
[2 def gbb|faa efg|edB AGA|BGG G2||

